assets/duotone/pen-nib-straight-duotone.svg

<svg id="Flat" xmlns="http://www.w3.org/2000/svg" viewBox="0 0 256 256">
  <path d="M211.39209,127.43359,184.00586,72.00342h-112L44.61914,127.43408a8.0009,8.0009,0,0,0,.73,8.28662l82.65674,112.28272,82.65625-112.28321A7.99983,7.99983,0,0,0,211.39209,127.43359Zm-83.38623,24.56983a20,20,0,1,1,20-20A19.99974,19.99974,0,0,1,128.00586,152.00342Z" opacity="0.2"/>
  <path d="M218.56445,123.88965,192.00586,70.13428V32.00293a16.01833,16.01833,0,0,0-16-16h-96a16.01833,16.01833,0,0,0-16,16V70.13428L37.44727,123.89062a15.94359,15.94359,0,0,0,1.45947,16.57325l82.65674,112.28222c.0335.04541.07318.08448.10754.1294q.17908.23217.37457.45019c.0683.07666.13538.15381.2063.227.14838.15381.30438.29932.46454.44092.05566.04932.10785.10254.1648.1499a8.004,8.004,0,0,0,.69152.51709c.04255.02832.08765.05225.13068.07959.20178.12891.40863.25.62219.36133.072.03711.14582.07031.21894.10547.19146.0918.3861.17725.58563.2544.08093.03125.16205.06054.244.08935.19806.06934.39972.1294.60455.18311.08411.022.16748.04541.25238.06494.21277.04785.42926.085.64813.11572.07776.01123.15412.02686.23236.03565a7.60884,7.60884,0,0,0,1.78846,0c.07806-.00879.15435-.02442.23193-.03565.21924-.03076.43616-.06787.64929-.11621.08429-.019.16687-.04248.25031-.06445.20568-.05371.408-.11426.60687-.1836.0813-.02832.1618-.05761.24206-.08838.20069-.07763.39643-.16357.58893-.25634.0719-.03467.14447-.0669.21527-.10352.217-.11279.42719-.23584.632-.36719.03961-.0249.08124-.04687.12042-.07275a7.97569,7.97569,0,0,0,.69593-.521c.05194-.04345.09955-.09228.15045-.13672.166-.146.32721-.29687.48053-.45605.06695-.06982.13031-.14258.19488-.21436.13532-.15136.2649-.30664.38855-.46777.03211-.042.0694-.07861.10071-.12109L217.104,140.46387A15.94327,15.94327,0,0,0,218.56445,123.88965ZM176.00586,32.00293v32h-96v-32Zm-48,112a12,12,0,1,1,12-12A12.01343,12.01343,0,0,1,128.00586,144.00293Zm8,79.63867V158.832a28,28,0,1,0-16,0V223.6416L51.7915,130.97852,76.97656,80.00293h102.0586l25.18457,50.97461Z"/>
</svg>

<svg xmlns="http://www.w3.org/2000/svg" viewBox="0 0 256 256"><path d="M211.4,127.4,184,72H72L44.6,127.4a8.2,8.2,0,0,0,.7,8.3L128,248l82.7-112.3A8.2,8.2,0,0,0,211.4,127.4ZM128,152a20,20,0,1,1,20-20A20.1,20.1,0,0,1,128,152Z" opacity="0.2"/><path d="M218.6,123.9,192,70.1V32a16,16,0,0,0-16-16H80A16,16,0,0,0,64,32V70.1L37.4,123.9a16.1,16.1,0,0,0,1.5,16.6l82.7,112.2a7.9,7.9,0,0,0,12.8,0l82.7-112.2A16.1,16.1,0,0,0,218.6,123.9ZM176,32V64H80V32ZM128,144a12,12,0,1,1,12-12A12,12,0,0,1,128,144Zm8,79.6V158.8a28,28,0,1,0-16,0v64.8L51.8,131,77,80H179l25.2,51Z"/></svg>
